flaticon/weather/temperature-1.svg

<svg xmlns="http://www.w3.org/2000/svg" width="32" height="32" viewBox="0 0 24 24">
    <path d="M 14.800781 15.304688 L 14.800781 2.800781 C 14.800781 1.257812 13.542969 0 12 0 C 10.457031 0 9.199219 1.257812 9.199219 2.800781 L 9.199219 15.304688 C 7.78125 16.324219 7.03125 18.011719 7.230469 19.765625 C 7.484375 21.957031 9.257812 23.726562 11.453125 23.96875 C 11.632812 23.992188 11.808594 24 11.988281 24 C 13.171875 24 14.316406 23.570312 15.199219 22.777344 C 16.21875 21.867188 16.800781 20.5625 16.800781 19.199219 C 16.800781 17.648438 16.054688 16.207031 14.800781 15.304688 Z M 14.667969 22.183594 C 13.808594 22.949219 12.699219 23.304688 11.542969 23.175781 C 9.714844 22.972656 8.234375 21.5 8.027344 19.675781 C 7.851562 18.148438 8.539062 16.683594 9.816406 15.851562 L 10 15.730469 L 10 15.199219 L 10.398438 15.199219 C 10.621094 15.199219 10.800781 15.023438 10.800781 14.800781 C 10.800781 14.578125 10.621094 14.402344 10.398438 14.402344 L 10 14.402344 L 10 13.199219 L 10.398438 13.199219 C 10.621094 13.199219 10.800781 13.023438 10.800781 12.800781 C 10.800781 12.578125 10.621094 12.402344 10.398438 12.402344 L 10 12.402344 L 10 11.199219 L 10.398438 11.199219 C 10.621094 11.199219 10.800781 11.023438 10.800781 10.800781 C 10.800781 10.578125 10.621094 10.398438 10.398438 10.398438 L 10 10.398438 L 10 9.199219 L 10.398438 9.199219 C 10.621094 9.199219 10.800781 9.023438 10.800781 8.800781 C 10.800781 8.578125 10.621094 8.398438 10.398438 8.398438 L 10 8.398438 L 10 7.199219 L 10.398438 7.199219 C 10.621094 7.199219 10.800781 7.019531 10.800781 6.800781 C 10.800781 6.578125 10.621094 6.398438 10.398438 6.398438 L 10 6.398438 L 10 5.199219 L 10.398438 5.199219 C 10.621094 5.199219 10.800781 5.019531 10.800781 4.800781 C 10.800781 4.578125 10.621094 4.398438 10.398438 4.398438 L 10 4.398438 L 10 3.199219 L 10.398438 3.199219 C 10.621094 3.199219 10.800781 3.019531 10.800781 2.800781 C 10.800781 2.578125 10.621094 2.398438 10.398438 2.398438 L 10.039062 2.398438 C 10.226562 1.488281 11.035156 0.800781 12 0.800781 C 13.101562 0.800781 14 1.695312 14 2.800781 L 14 3.199219 L 13.601562 3.199219 C 13.378906 3.199219 13.199219 3.378906 13.199219 3.601562 C 13.199219 3.820312 13.378906 4 13.601562 4 L 14 4 L 14 5.199219 L 13.601562 5.199219 C 13.378906 5.199219 13.199219 5.378906 13.199219 5.601562 C 13.199219 5.820312 13.378906 6 13.601562 6 L 14 6 L 14 7.199219 L 13.601562 7.199219 C 13.378906 7.199219 13.199219 7.378906 13.199219 7.601562 C 13.199219 7.820312 13.378906 8 13.601562 8 L 14 8 L 14 9.199219 L 13.601562 9.199219 C 13.378906 9.199219 13.199219 9.378906 13.199219 9.601562 C 13.199219 9.820312 13.378906 10 13.601562 10 L 14 10 L 14 11.199219 L 13.601562 11.199219 C 13.378906 11.199219 13.199219 11.378906 13.199219 11.601562 C 13.199219 11.820312 13.378906 12 13.601562 12 L 14 12 L 14 13.199219 L 13.601562 13.199219 C 13.378906 13.199219 13.199219 13.378906 13.199219 13.601562 C 13.199219 13.820312 13.378906 14 13.601562 14 L 14 14 L 14 15.730469 L 14.183594 15.851562 C 15.320312 16.59375 16 17.847656 16 19.199219 C 16 20.335938 15.515625 21.421875 14.667969 22.183594 Z M 14.667969 22.183594"/>
    <path d="M 12.398438 17.242188 L 12.398438 8.800781 C 12.398438 8.578125 12.222656 8.398438 12 8.398438 C 11.777344 8.398438 11.601562 8.578125 11.601562 8.800781 L 11.601562 17.242188 C 10.6875 17.425781 10 18.234375 10 19.199219 C 10 20.304688 10.894531 21.199219 12 21.199219 C 13.105469 21.199219 14 20.304688 14 19.199219 C 14 18.234375 13.3125 17.425781 12.398438 17.242188 Z M 12.398438 17.242188"/>
</svg>

<svg xmlns="http://www.w3.org/2000/svg" width="32" height="32" viewBox="0 0 24 24">
    <path d="M14.8 15.305V2.8C14.8 1.258 13.544 0 12 0a2.806 2.806 0 0 0-2.8 2.8v12.505a4.795 4.795 0 0 0-1.97 4.46c.254 2.192 2.028 3.962 4.223 4.204a4.799 4.799 0 0 0 3.746-1.191 4.8 4.8 0 0 0 1.602-3.579 4.79 4.79 0 0 0-2-3.894zm-.132 6.879a3.979 3.979 0 0 1-3.125.992c-1.828-.203-3.309-1.676-3.516-3.5a3.99 3.99 0 0 1 1.79-3.824L10 15.73v-.53h.398a.398.398 0 1 0 0-.798H10V13.2h.398a.398.398 0 1 0 0-.797H10V11.2h.398a.398.398 0 0 0 .403-.398.402.402 0 0 0-.403-.403H10V9.2h.398a.398.398 0 0 0 .403-.398.402.402 0 0 0-.403-.403H10V7.2h.398a.401.401 0 1 0 0-.8H10v-1.2h.398a.401.401 0 1 0 0-.8H10v-1.2h.398a.401.401 0 1 0 0-.8h-.359A2.001 2.001 0 0 1 14 2.8l.001.398h-.398a.401.401 0 0 0 0 .8l.398.001v1.2h-.398a.401.401 0 0 0 0 .8H14v1.2h-.398a.401.401 0 0 0 0 .8H14v1.2h-.398a.401.401 0 0 0 0 .8H14v1.2h-.398a.401.401 0 0 0 0 .8H14v1.2h-.398a.401.401 0 0 0 0 .8H14v1.73l.184.122A3.99 3.99 0 0 1 16 19.199a4.015 4.015 0 0 1-1.332 2.985zm0 0"/>
    <path d="M12.398 17.242V8.801a.398.398 0 1 0-.796 0v8.441A1.999 1.999 0 0 0 12 21.2a1.999 1.999 0 0 0 .398-3.957zm0 0"/>
</svg>
